X:1
T:Title
%%score { 1 | 2 }
L:1/8
Q:1/4=135
M:6/4
K:F
V:1 treble nm="Grand Piano"
V:2 bass 
V:1
 A4 A2 G4 F2 | B4 B2 A6 | [CFA]3 [B,EG] [A,F]2 [B,EG]6 | [EG]3 [DF] [EG]2 A6 | A4 A2 G4 F2 | %5
w: L.~H.~Edmunds * * *|||||
 B4 B2 A6 | [CFA]3 [B,EG] [A,F]2 [B,EG]2 [CEA]2 [B,EG]2 | [F,A,F]12 | [Fc]6 [Fd]6 | %9
w: ||||
 [Ec]3 [EB] [EA]2 [EB]6 | [EB]6 [Ec]6 | c3 B A2 [EG]6 | A4 A2 G4 F2 | B4 B2 A6 | %14
w: |||||
 [CFA]3 [B,EG] [A,F]2 [B,EG]2 [CEA]2 [B,EG]2 |[M:10/4] [F,A,F]8- [F,A,F]2 z2 z8 |] %16
w: ||
V:2
 [F,CF]4 [F,CF]2 [F,B,C]4 [F,A,]2 | [F,DF]4 [F,^CF]2 [F,=CF]6 | C,3 C, C,2 C,6 | %3
 [C,C]3 [C,C] [C,C]2 [F,CF]6 | [F,CF]4 [F,CF]2 [F,B,C]4 [F,A,]2 | [F,DF]4 [F,^CF]2 [F,=CF]6 | %6
 C,3 C, C,2 C,2 C,2 C,2 | F,,12 | [F,A,]6 [B,,B,]6 | [C,G,]3 [C,G,] [C,G,]2 [C,G,]6 | %10
 [C,C]6 [C,G,]6 | [A,CF]3 [G,CF][K:bass] [F,CF]2 [C,C]6 | [F,CF]4 [F,CF]2 [F,B,C]4 [F,A,]2 | %13
 [F,DF]4 [F,^CF]2 [F,=CF]6 | C,3 C, C,2 C,2 C,2 C,2 |[M:10/4] F,,8- F,,2 z2 z8 |] %16

